X: 27433
T: Moll Roone
R: reel
M: 4/4
K: Gmajor
D|G2 B>G (cA)GF|(GB) d>d d2 (Bd)|(dc)Ac (cB)GB|(cA)GF G2 z D|
G2 B>G (cA)GF|(GB) dd d2 (Bd)|(dc)Ac (cB)GB|(cA)GF G2 z d|
(d>c)Bc (dg)fe|d>cBc d2 g>g|g2 e gg f2 d|fed^c d=cBA|
G2 B>G (cA)GF|(GB) d>d d2 (Bd)|(dc)Ac (cB)GB|(cA)GF G2 z2||

